X: 179
T: SLIDE: Denis Murphy's No. 2 (Amaj)
T: Bedford Cross
C: C: Trad.; S: Méabh Begley
C: Set Leaders: Anton, Sophie
Z: Anton Zille ed.; Bregolas at The Session
N: https://thesession.org/members/26966/sets/73135
R: Slide
M: 12/8
L: 1/8
Q: 3/8=130
K: Amaj
|:B3 BAB c2B A2c|BAF A2F E2F A2c|B2B BAB c2B A2c|
[1 BAF A2F E3 EFA:|2 BAF A2F E3 E3||
|:e2B BAB c2B A3|BAF A2F E2F A3|e2B BAB c2B A2c|
[1 BAF A2F E3 E2f:|2 BAF A2F E2E EFA||

